icons/lines/mirroring-screen.svg

<svg xmlns="http://www.w3.org/2000/svg" width="24" height="24" viewBox="0 0 24 24" fill="none" stroke="currentColor" stroke-width="2" stroke-linecap="round" stroke-linejoin="round" >
  <path d="M2 9V8C2 5 4 3 7 3H17C20 3 22 5 22 8V16C22 19 20 21 17 21H16"/>
  <path d="M3.69043 11.71C8.31043 12.3 11.7004 15.7 12.3004 20.32"/>
  <path d="M2.62012 15.0699C6.01012 15.4999 8.50012 18 8.94012 21.39"/>
  <path d="M1.98047 18.86C3.67047 19.08 4.92047 20.32 5.14047 22.02"/>
  </svg>

<svg xmlns="http://www.w3.org/2000/svg" width="24" height="24" viewBox="0 0 24 24" fill="none" stroke="currentColor" stroke-width="2" stroke-linecap="round" stroke-linejoin="round">
  <path d="M1.98 18.86c1.69.22 2.94 1.46 3.16 3.16" />
  <path d="M2 9V8c0-3 2-5 5-5h10c3 0 5 2 5 5v8c0 3-2 5-5 5h-1" />
  <path d="M2.62 15.07c3.39.43 5.88 2.93 6.32 6.32" />
  <path d="M3.69 11.71c4.62.59 8.01 3.99 8.61 8.61" />
</svg>
